!!!Melodie: eigene
!!!Typ: Lied
**kern	**silbe	**silbe	**silbe	**silbe	**silbe	**silbe	**silbe	**silbe	**silbe	**silbe	**silbe	**silbe	**silbe	**silbe	**silbe
*clefG2	*lang:DE	*lang:DE	*lang:DE	*lang:DE	*lang:DE	*lang:DE	*lang:DE	*lang:DE	*lang:DE	*lang:DE	*lang:DE	*lang:DE	*lang:DE	*lang:DE	*lang:DE
*k[c#,f#]	*	*	*	*	*	*	*	*	*	*	*	*	*	*	*
*M4/4	*	*	*	*	*	*	*	*	*	*	*	*	*	*	*
*met(c)	*	*	*	*	*	*	*	*	*	*	*	*	*	*	*
4a	Ich	Du	Da	Ich	Ich	Ver#	Wenn	Wer	Wo	O	Nehmt	Zur	Du	Eins	Zwar
=	=	=	=	=	=	=	=	=	=	=	=	=	=	=	=
4dd	steh’	hast	ich	lag	se#	#gön#	oft	ist	nehm’	dass	weg	Sei#	fra#	a#	soll
4dd	an	mit	noch	in	#he	#ne	mein	der	ich	doch	das	#ten	#gest	#ber	ich
4dd	dei#	dei#	nicht	tief#	dich	mir,	Herz	Mei#	Weis#	so	Stroh,	will	nicht	hoff’	den#
4ee	#ner	#ner	ge#	#ster	mit	O	im	#ster,	#heit	ein	nehmt	ich	nach	ich	#ken,
=	=	=	=	=	=	=	=	=	=	=	=	=	=	=	=
4.cc#	Krip#	Lieb’	#bo#	To#	Freu#	Je#	Lei#	der	und	lie#	weg	hier	Lust	wirst	wie
8b	#pe	er#	#ren	#des#	#den	#su#	#be	all#	Ver#	#ber	das	und	der	du	ge#
4a;	hier,	#füllt	war,	#nacht,	an,	#lein,	weint	#hier	#stand	Stern	Heu!	da	Welt,	mir,	#ring
4a	O	Mein	da	du	und	dass	und	nach	mit	soll	Ich	viel	noch	mein	ich
=	=	=	=	=	=	=	=	=	=	=	=	=	=	=	=
4b	Je#	A#	bist	wa#	kann	ich	kei#	Wür#	Lo#	in	will	wei#	nach	Hei#	dich
4b	#su#	#dern	du	#rest	mich	dein	#nen	#dig#	#be	der	mir	#ßer	des	#land,	be#
4a	#lein,	und	mir	mei#	nicht	Münd#	Trost	#keit	zu	Krip#	Blu#	Li#	Lei#	nicht	#wir#
4g	mein	Ge#	ge#	#ne	satt	#lein	kann	aus#	er#	#pe	#men	#lien	#bes	ver#	#ten
=	=	=	=	=	=	=	=	=	=	=	=	=	=	=	=
(4.f#	Le#	#blü#	#bo#	Son#	se#	küs#	fin#	#strei#	#hö#	lie#	ho#	stek#	Freu#	#sa#	wer#
8e)	|	|	|	|	|	|	|	|	|	|	|	|	|	|	|
4;e	#ben!	#te:	#ren,	#ne,	#hen,	#se,	#den,	#chet,	#hen,	#gen!	#len,	#ken,	#den:	#gen,	#de;
4f#	Ich	dein	und	die	und	das	da	die	die	Für	dass	die	du	dass	du
=	=	=	=	=	=	=	=	=	=	=	=	=	=	=	=
4b	kom#	schö#	hast	Son#	weil	Münd#	ruft	Händ#	Äug#	ed#	mei#	sol#	hast	ich	bist
4b	#me,	#ner	mich	#ne,	ich	#lein,	mir’s	#lein,	#lein,	#le	#nes	#len	dich	dich	der
4a	bring’	Glanz,	dir	die	nun	das	zu:	so	die	Kin#	Hei#	sei#	bei	mö#	Schöp#
4a	und	dein	zu	mir	nicht	den	ich	das	so	#der	#lands	#ner	uns	#ge	#fer
=	=	=	=	=	=	=	=	=	=	=	=	=	=	=	=
4g	schen#	E#	ei#	zu#	wei#	sü#	bin	Kind#	un#	gro#	La#	Äug#	ein#	für	al#
4g	#ke	#ben#	#gen	#ge#	#ter	#ßen	dein	#lein	#ver#	#ßer	#ger	#lein	#ge#	und	#ler
4;f#	dir,	#bild	gar,	#bracht	kann,	Wein,	Freund,	mir	#wandt	Herr’n	sei	Paar	#stellt	für	Ding’,
4a	was	liegt	eh	Licht,	so	auch	ein	be#	nach	ge#	auf	im	an	in,	ich
=	=	=	=	=	=	=	=	=	=	=	=	=	=	=	=
4b	du	mir	ich	Le#	tu’	Milch	Til#	#gin#	mir	#hö#	Krän#	Schla#	uns#	bei	bin
4b	hast	ganz	dich	#ben,	ich,	und	#ger	#net	ge#	#ren	#zen	#fe	#'rer	und	nur
8La	mir	im	kannt’,	Freud’	was	Ho#	dei#	zu#	#rich#	güld#	und	sanft	statt	an	Staub
8Jg	|	|	|	|	|	|	|	|	|	|	|	|	|	|	|
4f#	ge#	Ge#	er#	und	ge#	#nig#	#ner	#zu#	#tet	#'ne	Vi#	be#	zu	mir	und
=	=	=	=	=	=	=	=	=	=	=	=	=	=	=	=
(4.e	#ge#	#mü#	#ko#	Won#	#sche#	#sü#	Sün#	#rei#	ste#	Wie#	#o#	#dek#	lei#	tra#	Er#
8d)	|	|	|	|	|	|	|	|	|	|	|	|	|	|	|
4;d	#ben:	#te.	#ren;	#ne.	#hen.	#ße	#den;	#chen?	#hen?	#gen:	#len;	#ken:	#den;	#gen:	#de:
4e	Nimm	Und	eh	O	O	weit	Was	Der	der	Ach!	mit	doch	sucht	so	doch
=	=	=	=	=	=	=	=	=	=	=	=	=	=	=	=
4e	hin,	wie	ich	Son#	dass	ü#	trau#	Schnee	vol#	Heu	Ro#	liebt	mei#	lass	bist
4e	es	kann	durch	#ne,	mein	#ber#	#erst	ist	#le	und	#sen,	viel#	#ner	mich	du
8Lf#	ist	es	dei#	die	Sinn	#trifft	du	hell,	Mond	Stroh	Nel#	#mehr	See#	doch	so
8Jg#	|	|	|	|	|	|	|	|	|	|	|	|	|	|	|
4a	mein	auch	#ne	das	ein	in	mein	die	ist	ist	#ken,	das	#len	dein	ein
=	=	=	=	=	=	=	=	=	=	=	=	=	=	=	=
4a	Geist	an#	Hand	wer#	Ab#	sei#	Brü#	Milch	schön	viel	Ros#	dür#	Herr#	Kripp#	from#
4g#	und	#ders	ge#	#te	#grund	#ner	#der#	ist	und	zu	#ma#	#re	#lich#	#lein	#mer
4;a	Sinn,	sein?	#macht;	Licht	wär’,	Kraft,	#lein?	weiß,	klar,	schlecht;	#rin	Gras	#keit	sein,	Gast,
4a	Herz,	Wie	da	des	und	es	du	ver#	schön	Samt,	aus	dies	durch	komm,	dass
=	=	=	=	=	=	=	=	=	=	=	=	=	=	=	=
4dd	Seel’	könnt’	hast	Glau#	dass	ist	sollst	#lie#	ist	Sei#	schö#	Kin#	dein	komm	du
4cc#	und	ich	du	#bens	mein’	voll	ja	#ren	der	#den,	#nen	#der#	selbst	und	noch
4b	Mut,	dich,	schon	in	Seel’	Lab#	gu#	doch	güld#	Pur#	Gär#	#lein,	eig#	le#	nie
4ee	nimm	mein	bei	mir	ein	#sal,	#ter	beid’	#'nen	#pur	#ten	als	#'nes	#ge	ver#
=	=	=	=	=	=	=	=	=	=	=	=	=	=	=	=
4.cc#	al#	Je#	dir	zu#	wei#	Stärk’	Din#	ih#	Ster#	wä#	will	al#	Her#	bei	#schmä#
8b	#les	#su#	ge#	#ge#	#tes	und	#ge	#ren	#nen	#ren	ich	#les	#ze#	mir	#het
4;a	hin	#lein,	#dacht,	#richt',	Meer,	Saft,	sein,	Preis,	Schar,	recht,	ihn	das,	#leid,	ein,	hast
4a	und	aus	wie	wie	dass	der	ich	wenn	dein’	dies	von	was	das	dich	den,
=	=	=	=	=	=	=	=	=	=	=	=	=	=	=	=
8Lb	lass	mei#	du	schön	ich	Mark	zah#	die#	Äug#	Kind#	o#	ich	will	und	der
8Jcc#	|	|	|	|	|	|	|	|	|	|	|	|	|	|	|
4dd	dir’s	#nem	mein	sind	dich	und	#le	#se	#lein	#lein	#ben	hier	ich	all	dich
4dd	wohl#	Her#	woll#	dei#	möch#	Bein	dei#	Händ#	sind	drauf#	her	nenn’	dir	dei#	ger#
4cc#	#ge#	#zen	#test	#ne	#te	er#	#ne	#lein	viel	#zu#	be#	und	nicht	#ne	#ne
=	=	=	=	=	=	=	=	=	=	=	=	=	=	=	=
4dd	#fal#	las#	wer#	Strah#	fas#	#quik#	Schul#	blin#	schö#	#le#	#streu#	den#	weh#	Freu#	sie#
4;dd	#len.	#sen?	#den.	#len!	#sen!	#ket.	#den.	#ken.	#ner.	#gen.	#en.	#ke.	#ren.	#den.	#het.
4r	%	%	%	%	%	%	%	%	%	%	%	%	%	%	%
==	==	==	==	==	==	==	==	==	==	==	==	==	==	==	==
*-	*-	*-	*-	*-	*-	*-	*-	*-	*-	*-	*-	*-	*-	*-	*-
